X: 10922
T: The FIFE HUNT
%R: reel
B: "Edinburgh Repository of Music" v.1 p.92 #2
F: http://digital.nls.uk/special-collections-of-printed-music/pageturner.cfm?id=87776133
Z: 2015 John Chambers <jc:trillian.mit.edu>
M: C
L: 1/8
K: G
g |\
fdd2 AFTF2 | Ee2^d e2eg |\
fd dd AFF2 | Dd2c d2-d :|\
g |\
f>da>d bdad | Ee2(^d e2)e>g |
fdad bdad | Ad2c d2d(g |\
f)dad bdad | Ee2^d e2eg |\
fada gbeg | Ad2c d2d |]

%%sep 2 1 500
%%sep 1 1 500

